X: 30877
T: Out On The Raz
R: reel
M: 4/4
K: Adorian
"Am" A2 AB cB A2|"G" ea ag e2 e2|"Am/F" A2 cA dA eA|"Em" G2 BG Bd BG|
"Dm" A2 AB cB A2|"Am" ea ag e2 e2|"Am/F" A2 cA dA eA|"G" G2 BG DG B,D|
"Am" A,2 (CA,) B,C DB,|"G" CB, CE D2 D2|"E" E2 ^GE AE B2|"G" Bc BA GE DB,|
"Am" A,2 (CA,) B,C DB,|"G" CB, CE D2 D2|"E" E2 (^GE) EA EE|"G" Bc BA "Em"BG AB|
"Am" A2 a2 ag ed|"G" cd Bc A2 AB|"F" A2 AB AG ED|"Em" EG G^F G2 G2|
"Am" A2 a2 ag ed|"G" cd Bc A2 AB|"F" A2 AB AG ED|"Em" EG G^F G2 G2|
"Am" A,2 (CA,) B,C DB,|"G" CB, CE D2 D2|"E" E2 ^GE AE B2|"G" Bc BA GE DB,|
"Am" A,2 (CA,) B,C DB,|"G" CB, CE D2 D2|"E" E2 (^GE) EA EE|"G" G2 BG DG B,2|"Am" A,8||

